!!!OTL@@FUR: Olil&agrave; folilalele
**kern
*clefG2
*k[b-]
*F:
*M3/4
*MM80
*>[A]
*>A
8.a
16b-
=1
[4cc
8.cc]
16dd
8.cc
16bn
=2
4cc
8a
8r
4dd
=3
8.cc
16b-
4b-
4dd
=4
8.cc
16a
4a
8.a
16b-
=5
[4cc
8.cc]
16dd
8.cc
16bn
=6
4cc
8a
8r
4dd
=7
8.ee
16ff
8ee
8dd
12dd
12cc
12b-
=8
[2a
8a]
8r
==
*-
!!!ARE: Friuli
!!!ENC: Kelly Leistikow
!!!END: 2002/03/07
!!!ref: @{OTL@@FUR}
